images_elementary_svg/cmd/sc_freezepanesfirstcolumn.svg

<svg viewBox="0 0 16 16" xmlns="http://www.w3.org/2000/svg" xmlns:xlink="http://www.w3.org/1999/xlink"><linearGradient id="a" gradientTransform="matrix(.59436 0 0 .5999 -19.265 -.033)" gradientUnits="userSpaceOnUse" x1="25.132" x2="25.132" y1="15.5" y2="48.396"><stop offset="0" stop-color="#fafafa"/><stop offset="1" stop-color="#e2e1de"/></linearGradient><linearGradient id="b" gradientTransform="matrix(0 -.941 1.3625 0 -3.086 13.04)" gradientUnits="userSpaceOnUse" x1="7.481" x2="4.293" y1="-.671" y2="11.073"><stop offset="0" stop-color="#90dbec"/><stop offset=".262" stop-color="#55c1ec"/><stop offset=".705" stop-color="#3689e6"/><stop offset="1" stop-color="#2b63a0"/></linearGradient><linearGradient id="c" gradientTransform="matrix(0 -.987 .884 0 -1.288 13.908)" gradientUnits="userSpaceOnUse" x1="14.625" x2="-.093" y1="5.981" y2="5.981"><stop offset="0" stop-color="#fff"/><stop offset=".036" stop-color="#fff" stop-opacity=".235"/><stop offset=".951" stop-color="#fff" stop-opacity=".157"/><stop offset="1" stop-color="#fff" stop-opacity=".392"/></linearGradient><g transform="translate(0 2)"><rect fill="url(#a)" height="14" rx=".424" ry=".491" width="14" x="1" y="-1"/><path d="m.5-2c-.276 0-.5.224-.5.5v15c0 .276.224.5.5.5h15c.276 0 .5-.224.5-.5v-15c0-.276-.224-.5-.5-.5zm.498.998h14.004v2.002h-4.002v-2h-1v2h-4v-2h-1v2h-4.002zm0 3.002h4.002v3h-4v1h4v3h-4v1h4v3h1v-3h4v3h1v-3h4v-1h-4v-3h4v-1h-4v-3h4.002v11.002h-14.004zm5.002 0h4v3h-4zm0 4h4v3h-4z" fill="#030303" opacity=".32"/><path d="m5-1.506h1v3.074h-1zm5 0h1v3.103h-1z" fill="#acacac"/><path d="m1 13v-15.02h4v15.02z" fill="url(#b)"/><path d="m.5-2c-.276 0-.5.224-.5.5v15c0 .276.224.5.5.5h5.5v-.998h-5.002v-11.002h4.002v3h-4v1h4v3h-4v1h4v3h1v-14h-1v2h-4.002v-2.002h5.002v-.998z" fill="#004372" fill-opacity=".375"/><path d="m.582 13.5 5.426.035-.008-1.01-4.5-.025v-13.06l4.008.003v-.954l-4.924-.006z" fill="url(#c)"/></g></svg>

<svg xmlns="http://www.w3.org/2000/svg" xmlns:xlink="http://www.w3.org/1999/xlink" viewBox="0 0 16 16"><defs><linearGradient id="c" gradientTransform="matrix(.59436 0 0 .5999 -19.265 -.033)" gradientUnits="userSpaceOnUse" x1="25.132" x2="25.132" y1="15.5" y2="48.396"><stop offset="0" stop-color="#fafafa"/><stop offset="1" stop-color="#e2e1de"/></linearGradient><linearGradient id="b"><stop offset="0" stop-color="#fff"/><stop offset=".036" stop-color="#fff" stop-opacity=".235"/><stop offset=".951" stop-color="#fff" stop-opacity=".157"/><stop offset="1" stop-color="#fff" stop-opacity=".392"/></linearGradient><linearGradient id="a" gradientTransform="matrix(.4922 0 0 .4584 4.51 -4.794)" gradientUnits="userSpaceOnUse" x1="23.732" x2="23.732" y1="5.394" y2="39.735"><stop offset="0" stop-color="#90dbec"/><stop offset=".262" stop-color="#55c1ec"/><stop offset=".705" stop-color="#3689e6"/><stop offset="1" stop-color="#2b63a0"/></linearGradient><linearGradient xlink:href="#a" id="d" gradientUnits="userSpaceOnUse" gradientTransform="matrix(0 -.941 1.3625 0 -3.086 13.04)" x1="7.481" y1="-.671" x2="4.293" y2="11.073"/><linearGradient xlink:href="#b" id="e" gradientUnits="userSpaceOnUse" gradientTransform="matrix(0 -.987 .884 0 -1.288 13.908)" x1="14.625" y1="5.981" x2="-.093" y2="5.981"/></defs><g transform="translate(0 2)"><rect height="14" rx=".424" ry=".491" width="14" x="1" y="-1" fill="url(#c)"/><path d="M.5-2c-.276 0-.5.224-.5.5v15c0 .276.224.5.5.5h15c.276 0 .5-.224.5-.5v-15c0-.276-.224-.5-.5-.5H.5zm.498.998h14.004V1H11v-2h-1v2H6v-2H5v2H.998v-2.002zM.998 2H5v3H1v1h4v3H1v1h4v3h1v-3h4v3h1v-3h4V9h-4V6h4V5h-4V2h4.002v11.002H.998V2zM6 2h4v3H6V2zm0 4h4v3H6V6z" fill="#030303" opacity=".32"/><path d="M5-1.506h1v3.074H5zm5 0h1v3.103h-1z" fill="#acacac"/><path d="M1 13V-2.02h4V13z" fill="url(#d)"/><path d="M.5-2c-.276 0-.5.224-.5.5v15c0 .276.224.5.5.5H6v-.998H.998V2H5v3H1v1h4v3H1v1h4v3h1V-1H5v2H.998v-2.002H6V-2H.5z" fill="#004372" fill-opacity=".375"/><path d="M.582 13.5l5.426.035L6 12.525 1.5 12.5V-.56l4.008.003v-.954L.584-1.517z" fill="url(#e)"/></g></svg>
